icons/communication/message-search-24.svg

<svg width="24" height="24" viewBox="0 0 24 24" fill="none" xmlns="http://www.w3.org/2000/svg">
<path fill-rule="evenodd" clip-rule="evenodd" d="M8.25 10.75C8.25 8.67893 9.92893 7 12 7C14.0711 7 15.75 8.67893 15.75 10.75C15.75 11.6427 15.438 12.4626 14.9172 13.1066L16.5303 14.7197C16.8232 15.0126 16.8232 15.4874 16.5303 15.7803C16.2374 16.0732 15.7626 16.0732 15.4697 15.7803L13.7545 14.0651C13.231 14.3427 12.6338 14.5 12 14.5C9.92893 14.5 8.25 12.8211 8.25 10.75ZM12 8.5C10.7574 8.5 9.75 9.50736 9.75 10.75C9.75 11.9926 10.7574 13 12 13C13.2426 13 14.25 11.9926 14.25 10.75C14.25 9.50736 13.2426 8.5 12 8.5Z" fill="black"/>
<path fill-rule="evenodd" clip-rule="evenodd" d="M3.00001 11.5C3.00001 12.8408 3.27821 14.1184 3.78057 15.2767L2.08244 19.3131C1.7836 20.0234 2.36666 20.7906 3.13105 20.6928L8.3135 20.03C9.57728 20.6513 10.9989 21 12.5 21C17.7467 21 22 16.7467 22 11.5C22 6.25329 17.7467 2 12.5 2C7.2533 2 3.00001 6.25329 3.00001 11.5ZM12.5 3.5C8.08173 3.5 4.50001 7.08172 4.50001 11.5C4.50001 12.7385 4.78091 13.9092 5.28177 14.9539C5.39825 15.1969 5.37227 15.4713 5.23708 15.6828L3.80161 19.0948L8.34898 18.5132C8.48487 18.4958 8.61691 18.516 8.73469 18.5656C8.75906 18.5752 8.78317 18.5862 8.80691 18.5986C9.91092 19.1742 11.1663 19.5 12.5 19.5C16.9183 19.5 20.5 15.9183 20.5 11.5C20.5 7.08172 16.9183 3.5 12.5 3.5Z" fill="black"/>
</svg>

<svg xmlns="http://www.w3.org/2000/svg" width="24" height="24"><path fill-rule="evenodd" d="M8.25 10.75a3.75 3.75 0 116.667 2.357l1.613 1.613a.75.75 0 11-1.06 1.06l-1.716-1.715A3.75 3.75 0 018.25 10.75zM12 8.5a2.25 2.25 0 100 4.5 2.25 2.25 0 000-4.5z"/><path fill-rule="evenodd" d="M3 11.5c0 1.34.278 2.618.78 3.777l-1.698 4.036a1 1 0 001.05 1.38l5.181-.663A9.5 9.5 0 103 11.5zm9.5-8a8 8 0 00-7.218 11.454.75.75 0 01-.045.729l-1.435 3.412 4.547-.582a.746.746 0 01.458.086A8 8 0 1012.5 3.5z"/></svg>
